!!! OTL: Literature127
!!! Chapter: 5
!!! Section: IV
!!! Page: 374
!!! Mode: 
!!! Encoder: DJB
**kern
*staff1
*I"Piano
=1-
*clefC4
*k[b-e-a-]
*c:
*M3/8
8r
8r
16.c\LL
32d\JJk
=2
4.e-\
=3
16.g\LL
32f\JK
8d\
16.c\L
32d\JJk
=4
4.e-\
=5
16.b-\LL
32a-\JK
8d\
16.d\L
32e-\JJk
=6
4f\
16.b-\LL
32g\JJk
=7
4e-\
16.a-\LL
32g\JJk
=8
4e-\
16.g\LL
32f\JJk
=9
8.c\L
32d\LL
32c\J
16Bn\
16c\JJ
=10
8d\L
8e-\
8en\J
=11
8f\L
8.b-\
16a-\Jk
=12
!!linebreak:original
8d\L
8.g\
16f\Jk
=13
40c\LLL
40d\
40c\
40Bn\
40c\JJ
8e-\
8d\J
=14
4c\
8r
==
*-
